outputs/icons/device/microsd_sharp.svg

<svg xmlns="http://www.w3.org/2000/svg" width="1200" height="1200" fill="none"><g fill="#000" clip-path="url(#a)"><path d="M427.653 463.629V790.01h-76.855V463.629a36.738 36.738 0 1 0-73.48 0V790.01h-77.005V463.629a36.74 36.74 0 0 0-73.479 0V790.01H50V463.629a113.5 113.5 0 0 1 18.153-61.687 113.5 113.5 0 0 1 112.465-50.638 113.5 113.5 0 0 1 58.219 27.301 113.492 113.492 0 0 1 170.676 23.333 113.5 113.5 0 0 1 18.14 61.691M538.23 409.957c0 18.747-16.765 33.795-37.515 33.795-20.657-.021-37.469-15.242-37.49-33.924s16.704-33.945 37.45-33.859c20.745.086 37.555 15.243 37.555 33.988M799.895 601.205h-54.69a3.736 3.736 0 0 1-3.46-3.87V466.413c-.02-39.19 28.465-78.144 86.505-78.144 45.21.043 82.19 25.045 82.19 63.031v15.264c0 9.609-11.93 21.434-27.58 21.369-15.655-.065-28.295-10.599-28.295-21.111 0 0 1.935-25.282-25.665-24.357-16.19.581-25.67 10.125-25.67 27.324.13 10.706.13 127.656.13 127.656.02.475-.05.95-.21 1.395a3.7 3.7 0 0 1-.735 1.21c-.325.35-.71.63-1.145.83-.43.2-.9.31-1.375.325"/><path fill-rule="evenodd" d="M1102.225 591.005a108.2 108.2 0 0 1-59.965 18.425 108 108 0 0 1-41.61-8.07 108 108 0 0 1-35.295-23.465 108.1 108.1 0 0 1-23.54-35.245 108 108 0 0 1-8.16-41.59 108.17 108.17 0 0 1 129.24-105.913 108.18 108.18 0 0 1 84.995 84.81 108.16 108.16 0 0 1-6.015 62.438 108.2 108.2 0 0 1-39.65 48.61m-39.09-121.256a37.86 37.86 0 0 0-21.045-6.376 38.13 38.13 0 0 0-26.655 11.14 38.12 38.12 0 0 0-11.18 26.632 37.85 37.85 0 0 0 6.335 21.06 37.9 37.9 0 0 0 16.975 13.98 37.87 37.87 0 0 0 41.29-8.16 37.868 37.868 0 0 0 8.235-41.276 37.9 37.9 0 0 0-13.955-17"/><path d="m820.375 695.405 14.295-40.265c28.175-.155 42.085.215 62.52.76 5.425.145 11.345.305 18.08.465 8.125.28 21.945 1.375 38.695 3.72L885.17 702.93c-12.2-3.04-24.62-5.12-37.145-6.215-10.765-1.065-15.85-1.125-21.235-1.185-1.995-.025-4.035-.05-6.415-.125M918.205 716.635c.63.405 1.245.84 1.83 1.31l116.6-38.695a223 223 0 0 0-27.13-9.695l-100.91 40.63a96 96 0 0 1 9.61 6.45M654.205 602.525h35.75c22.51 0 30.895-14.55 30.915-33.6.02-19.045-9.245-34.395-32.245-34.395H658.42c-6.99 0-29.39-5.805-29.435-34.591 0-25.11 21.5-34.612 29.35-34.547h34.89c16.855 0 27.41-15.457 27.365-34.396-.045-18.94-12.6-33.365-28.225-33.408H652.27c-30.095 0-92.16 34.977-92.095 101.039 0 70.773 63.805 103.898 94.03 103.898M500.895 453.662c-26.766 0-35.924 11.48-35.924 26.701l.107 118.622a3.463 3.463 0 0 0 3.439 3.335l64.668.13a3.55 3.55 0 0 0 3.46-3.355s-.11-112.949-.13-117.528c.02-16.468-9.005-27.841-35.62-27.905M663.46 743.745c-6.125-1.815-13.24-3.77-20.71-5.825-30.37-8.35-66.68-18.335-66.68-27.235 0-12.85 31.84-13.65 57.4-14.29 2.315-.06 4.59-.115 6.77-.18 28.68-.795 139.865-.945 139.865-.945l14.125-40.03s-80.015-2.15-159.365 1.74c-114.325 5.74-135.67 31.065-138.357 55.315-3.483 31.625 38.977 53.49 64.687 63.27 7.01 2.68 15.195 5.16 23.305 7.62 20.275 6.145 40.115 12.155 40.115 20.8 0 9.845-14.665 10.6-56.8 9.845-65.265-1.14-120.192-7.72-120.192-7.72l-25.648 70.815s62.344 4.3 128.71 4.3c5 0 9.955.01 14.86.02 87.825.18 158.715.33 172.3-58.9 10.06-44.265-28.425-65.01-74.385-78.6M928.04 725.835l137.8-34.715c21.95 10.745 40.225 24.465 49.79 42.005 8.515 15.52 6.73 31.535-3.14 47.19-72.835 90.44-253.565 96.8-339.05 99.805-7.01.245-13.38.47-18.995.715l32.25-90.545a481 481 0 0 0 64.79-6.775 228 228 0 0 0 44.245-13.025c12.17-5.185 21.865-11.2 27.945-17.35 6.085-6.15 8.88-12.77 7.785-19.22a18.4 18.4 0 0 0-1.57-4.925 19.6 19.6 0 0 0-1.85-3.16"/></g><defs><clipPath id="a"><path fill="#fff" d="M0 0h1200v1200H0z"/></clipPath></defs></svg>

<svg width="1200" height="1200" viewBox="0 0 1200 1200" fill="none" xmlns="http://www.w3.org/2000/svg"><g clip-path="url(#clip0_833_2004)"><path d="M427.653 463.629V790.01H350.798V463.629C350.798 453.885 346.927 444.54 340.036 437.65C333.147 430.76 323.801 426.889 314.058 426.889C304.313 426.889 294.969 430.76 288.079 437.65C281.189 444.54 277.318 453.885 277.318 463.629V790.01H200.313V463.629C200.313 453.885 196.442 444.54 189.552 437.65C182.662 430.76 173.317 426.889 163.573 426.889C153.829 426.889 144.484 430.76 137.594 437.65C130.704 444.54 126.834 453.885 126.834 463.629V790.01H50V463.629C49.978 441.746 56.282 420.324 68.153 401.942C80.022 383.558 96.954 368.999 116.908 360.014C136.861 351.03 158.986 348.005 180.618 351.304C202.251 354.602 222.468 364.083 238.837 378.605C255.204 364.08 275.421 354.597 297.053 351.298C318.685 347.998 340.81 351.023 360.763 360.007C380.715 368.992 397.646 383.553 409.513 401.938C421.38 420.323 427.68 441.746 427.653 463.629Z" fill="black"/><path d="M538.23 409.957C538.23 428.704 521.465 443.752 500.715 443.752C480.058 443.731 463.246 428.51 463.225 409.828C463.204 391.147 479.929 375.883 500.675 375.969C521.42 376.055 538.23 391.212 538.23 409.957Z" fill="black"/><path d="M799.895 601.205H745.205C744.24 601.135 743.34 600.69 742.695 599.97C742.05 599.245 741.71 598.305 741.745 597.335V466.413C741.725 427.223 770.21 388.269 828.25 388.269C873.46 388.312 910.44 413.314 910.44 451.3V466.564C910.44 476.173 898.51 487.998 882.86 487.933C867.205 487.868 854.565 477.334 854.565 466.822C854.565 466.822 856.5 441.54 828.9 442.465C812.71 443.046 803.23 452.59 803.23 469.789C803.36 480.495 803.36 597.445 803.36 597.445C803.38 597.92 803.31 598.395 803.15 598.84C802.985 599.285 802.735 599.7 802.415 600.05C802.09 600.4 801.705 600.68 801.27 600.88C800.84 601.08 800.37 601.19 799.895 601.205Z" fill="black"/><path fill-rule="evenodd" d="M1102.225 591.005C1084.495 602.935 1063.63 609.345 1042.26 609.43C1027.995 609.515 1013.85 606.77 1000.65 601.36C987.45 595.945 975.455 587.97 965.355 577.895C955.26 567.815 947.255 555.835 941.815 542.65C936.375 529.46 933.6 515.325 933.655 501.06C933.69 479.69 940.06 458.812 951.95 441.057C963.84 423.302 980.725 409.466 1000.47 401.296C1020.215 393.125 1041.935 390.986 1062.895 395.147C1083.855 399.308 1103.115 409.584 1118.24 424.677C1133.365 439.771 1143.685 459.006 1147.89 479.957C1152.095 500.905 1150.005 522.635 1141.875 542.395C1133.75 562.16 1119.95 579.075 1102.225 591.005ZM1063.135 469.749C1056.905 465.588 1049.58 463.369 1042.09 463.373C1032.09 463.446 1022.515 467.447 1015.435 474.513C1008.36 481.579 1004.345 491.144 1004.255 501.145C1004.235 508.635 1006.44 515.965 1010.59 522.205C1014.74 528.44 1020.65 533.305 1027.565 536.185C1034.485 539.06 1042.1 539.825 1049.45 538.37C1056.8 536.915 1063.555 533.315 1068.855 528.025C1074.16 522.73 1077.77 515.98 1079.235 508.635C1080.7 501.29 1079.955 493.671 1077.09 486.749C1074.22 479.826 1069.365 473.91 1063.135 469.749Z" fill="black"/><path d="M820.375 695.405L834.67 655.14C862.845 654.985 876.755 655.355 897.19 655.9C902.615 656.045 908.535 656.205 915.27 656.365C923.395 656.645 937.215 657.74 953.965 660.085L885.17 702.93C872.97 699.89 860.55 697.81 848.025 696.715C837.26 695.65 832.175 695.59 826.79 695.53C824.795 695.505 822.755 695.48 820.375 695.405Z" fill="black"/><path d="M918.205 716.635C918.835 717.04 919.45 717.475 920.035 717.945L1036.635 679.25C1027.81 675.435 1018.75 672.2 1009.505 669.555L908.595 710.185C911.925 712.14 915.135 714.295 918.205 716.635Z" fill="black"/><path d="M654.205 602.525H689.955C712.465 602.525 720.85 587.975 720.87 568.925C720.89 549.88 711.625 534.53 688.625 534.53H658.42C651.43 534.53 629.03 528.725 628.985 499.939C628.985 474.829 650.485 465.327 658.335 465.392H693.225C710.08 465.392 720.635 449.935 720.59 430.996C720.545 412.056 707.99 397.631 692.365 397.588H652.27C622.175 397.588 560.11 432.565 560.175 498.627C560.175 569.4 623.98 602.525 654.205 602.525Z" fill="black"/><path d="M500.895 453.662C474.129 453.662 464.971 465.142 464.971 480.363L465.078 598.985C465.111 599.88 465.487 600.725 466.129 601.345C466.769 601.965 467.626 602.315 468.517 602.32L533.185 602.45C534.075 602.43 534.93 602.07 535.57 601.45C536.21 600.83 536.595 599.985 536.645 599.095C536.645 599.095 536.535 486.146 536.515 481.567C536.535 465.099 527.51 453.726 500.895 453.662Z" fill="black"/><path d="M663.46 743.745C657.335 741.93 650.22 739.975 642.75 737.92C612.38 729.57 576.07 719.585 576.07 710.685C576.07 697.835 607.91 697.035 633.47 696.395C635.785 696.335 638.06 696.28 640.24 696.215C668.92 695.42 780.105 695.27 780.105 695.27L794.23 655.24C794.23 655.24 714.215 653.09 634.865 656.98C520.54 662.72 499.195 688.045 496.508 712.295C493.025 743.92 535.485 765.785 561.195 775.565C568.205 778.245 576.39 780.725 584.5 783.185C604.775 789.33 624.615 795.34 624.615 803.985C624.615 813.83 609.95 814.585 567.815 813.83C502.55 812.69 447.623 806.11 447.623 806.11L421.975 876.925C421.975 876.925 484.319 881.225 550.685 881.225C555.685 881.225 560.64 881.235 565.545 881.245C653.37 881.425 724.26 881.575 737.845 822.345C747.905 778.08 709.42 757.335 663.46 743.745Z" fill="black"/><path d="M928.04 725.835L1065.84 691.12C1087.79 701.865 1106.065 715.585 1115.63 733.125C1124.145 748.645 1122.36 764.66 1112.49 780.315C1039.655 870.755 858.925 877.115 773.44 880.12C766.43 880.365 760.06 880.59 754.445 880.835L786.695 790.29C808.42 789.5 830.065 787.235 851.485 783.515C866.635 780.68 881.46 776.315 895.73 770.49C907.9 765.305 917.595 759.29 923.675 753.14C929.76 746.99 932.555 740.37 931.46 733.92C931.17 732.215 930.645 730.555 929.89 728.995C929.375 727.89 928.755 726.83 928.04 725.835Z" fill="black"/></g><defs><clipPath id="clip0_833_2004"><path width="24" fill="white" d="M0 0H1200V1200H0V0z"/></clipPath></defs></svg>
